X: 1
T:Groupa Waltz#1
S:Trevor Keates <tanda.keates:tesco.net> tradtunes 2001-10-16
M:3/4
L:1/8
K:Bm
B2  gf fB|fg fB fB|A2  dc cA|ef eA eA|
B2  gf fB|fg fB fB|A2  dc cA|B2-B3 A2 :|
B3BB2|A2E4|^G3EG2|A4c2|B2g2f2|
e4d2|e2 cdef|edcdcA:|"last time"B2B4||
